X:1
T:Nu[n] bitten wir
T:Balthasar Resinarius
T:Source : DDT 34---Leipzig---Breitkopf & Härtel---J.Wolf---1908. First print : Newe Deudsche Geistliche Gesenge---Wittemberg---G.Rhau---1544. Editor : André Vierendeels (01/08/17).
T:Nu[n] bitten wir
T:©
T:©
T:©
C:Balthasar Resinarius
Z:©
%%score [ 1 [ 2 3 ] 4 ]
L:1/8
Q:1/4=120
M:2/2
K:F
V:1 treble nm="Alto" snm="A"
V:2 treble-8 nm="Tenor 1" snm="T 1"
V:3 treble-8 nm="Tenor 2" snm="T 2"
V:4 bass nm="Bass" snm="B"
V:1
 z4 F4 | G2 G2 F4 | E4 F4- | F2 ED E2 G2- | GF F4 E2 | F4 A4 | c4 d4 | c2 c4 B2 | c3 B A2 G2- | %9
w: Nu|bit- ten wir|den hei-||* * li- gen|Geist, umb|den rech-|ten Glau- *||
 GF F4 E2 | F4 F2 E2- | ED D4 C2 | D6 C2 | D4 C4 | D3 E FD G2- | GF F4 E2 | F2 A4 G2 | A2 F2 G4 | %18
w: |ben al- *|||ler meist,|al- * * * *|* * * ler|meist, dasz er|uns be- hü-|
 A2 A2 G2 G2 | A4 F4 | z8 | z8 | z8 | F2 F2 G4 | A4 z4 | F2 F2 D4 | G3 F E3 D | C4 z2 F2- | %28
w: te an un- serm|En- de,||||wenn wir heim-|fahrn|aus die- sem|e- * len- *|de. Ky-|
 F2 E2 FEFG | A6 G2- | GF F4 E2 | F8 |] %32
w: |ri- e,|_ e- lei- *|son.|
V:2
 c4 d2 d2 | G2 c3 B BA | c8 | B4 G2 c2- | c2 B2 c4 | A2 f4 f2 | e4 f4 | edef g4 | e2 f2 F2 G2 | %9
w: Nu bit- ten|wir den _ hei- *||* * li-|* gen Geist,|umb _ den|rech- ten|Glau- * * * *|* ben al- *|
 A2 GF G4 | F4 D2 E2 | F2 ED E4 | D3 E FG A2 | F2 B4 A2 | B4 z2 c2 | c2 B2 c4 | A2 f4 e2 | %17
w: ||||* * ler|meist, al-|* * ler-|meist, dasz er|
 f2 d2 e4 | f2 f2 e2 e2 | f4 d4 | z8 | z8 | z8 | f2 f2 e4 | f4 z4 | c2 c2 B3 c | d4 c3 B | %27
w: uns be- hü-|te an un- serm|En- de,||||wenn wir heim-|fahrn|aus die- * sem|e- * *|
 G4 A2 A2 | G4 A2 F2 | f3 e dc c2- |"^-natural" c2 B2 c4 | c8 |] %32
w: * * len-|* * de.|Ky- * ri- * e,|_ e- lei-|son.|
V:3
 z8 | z4 F4 | G2 G2 F4 | D4 C4 | F4 G4 | F8 | z4 A4 | c4 d4 | c8- | c8 | A8- | A8 | F8- | F8 | %14
w: |Nu|bit- ten wir|den hei-|li- gen|Geist,|umb|den rech-|ten|_|Glau-||ben|_|
 D6 E2 | F4 G4 | A4 z4 | z8 | z8 | z4 z2 A2- | A2 G2 A2 F2 | G4 A2 A2 | G2 G2 A4 | F4 z4 | %24
w: al- *|* ler-|meist,|||dasz|_ er uns be-|hü- te an|un- serm En-|de,|
 F2 F2 G4 | A4 F2 F2 | D4 G3 F | E3 D C4- | C4 F4 | D6 E2 | F4 G4 | F8 |] %32
w: wenn wir heim-|fahrn aus die-|sem e- *|len- * de.|_ Ky-|ri- e,|e- lei-|son.|
V:4
 z8 | C,4 D,2 D,2 | C,4 A,,4 | B,,4 C,4 | D,2 D,2 C,4 | z2 F,3 E,F,G, | A,4 D,4 | E,2 C,2 G,4 | %8
w: |Nu bit- ten|wir den|hei- *|li- gen Geist,|umb _ _ _|_ den|rech- ten Glau|
 C,2 F,4 E,2 | F,4 C,4 | D,6 C,2 | D,4 A,,4 | B,,6 A,,2 | B,,4 F,,4 | B,,6 C,2 | D,4 C,4 | %16
w: _ _ _|* ben,|umb den|rech- *|* ten|Glau- *|* ben|al- ler-|
 F,,4 z4 | z8 | z8 | z4 z2 F,2- | F,2 E,2 F,2 D,2 | C,4 F,2 F,2 | C,2 C,2 F,4 | D,4 z4 | %24
w: meist,|||dasz|_ er uns be-|hü- te an|un- serm En-|de,|
 D,2 D,2 C,4 | F,,4 B,,4- | B,,2 B,,2 C,4 | C,3 B,, A,,2 F,,2 | C,4 F,,4 | z4 z2 C,2 | %30
w: wenn wir heim-|fahrn aus|_ die- sem|e- * * *|len- de.|Ky-|
 D,2 D,2 C,4 | F,,8 |] %32
w: ri'e, e- lei-|son.|

